X:315
T:B315-  My lodging is on the Cold Ground
S:(1st/2)
Q:1/4=120
L:1/4
M:6/4
K:Gm
D|G2ABAG|d3c2A|BcdA2G|(^F3F2)D|\
G2AB3/2A/G|d3c3/2B/c|defB2c|(d3d2)d|\
d3/2e/fB2c|d3c3/2B/c|d3/2e/fA2G|(^F3F2)F|\
G2AB3/2A/G|d3g3|B3/2c/dA2G|(G3G2)|]

